dist/img/svg/umbrella_icon.svg

<svg xmlns="http://www.w3.org/2000/svg" viewBox="0 0 595.27 595.28"><path d="M490.64 245.32c-23.97 0-51.79 3.72-73.35 13.71-5.73-57.42-20.82-131.67-52.8-179.72 86.31 22.47 156.35 88.16 183.61 173.76-16.69-5.03-36.65-7.75-57.46-7.75m-191.84 0c-27.54 0-59.96 3.46-85.6 12.81 12.85-117.4 53.95-187.21 85.6-187.21 32.81 0 71.12 73.5 83.29 186.81-22.87-8.43-53.14-12.41-83.29-12.41m-120.77 13.73c-21.5-9.98-49.33-13.73-73.4-13.73-20.79 0-40.74 2.71-57.42 7.74 27.44-85.65 98.13-151.34 185.34-173.78-32.8 47.98-48.58 121.82-54.52 179.77m412.84 22.34C567.55 147.43 454.69 44.69 316.24 36.57V17.43C316.24 7.8 308.43 0 298.8 0c-9.63 0-17.44 7.8-17.44 17.43v19.14C143.38 44.62 27.95 146.83 4.4 281.38.88 287.63 0 293.42 0 297.64c0 9.63 7.8 17.43 17.43 17.43 6.6 0 18.1-4.62 19.58-16.18.15-1.11.31-2.21.47-3.31 7.74-6.07 30.67-15.39 67.15-15.39 42.58 0 66.73 12.7 69.78 18.1.32 8.43 6.7 16.29 17.42 16.8 9.59.45 17.72-6.93 18.22-16.51 6.37-5.64 30.77-15.59 71.31-17.89v244.83c0 38.46 31.29 69.75 69.76 69.75 38.46 0 69.76-31.29 69.76-69.75v-17.44c0-9.64-7.81-17.44-17.44-17.44-9.64 0-17.44 7.8-17.44 17.44v17.44c0 19.23-15.65 34.88-34.88 34.88-19.24 0-34.88-15.65-34.88-34.88V280.7c39.4 2.31 62.9 12.07 68.96 17.61 0 .06 0 .12.01.18.43 9.34 8.15 16.62 17.4 16.62 11 0 17.92-8.09 18.25-16.82 3.05-5.4 27.2-18.1 69.78-18.1 36.48 0 59.41 9.32 67.15 15.39.15 1.02.3 2.04.44 3.07 1.42 11.02 12.5 16.42 19.6 16.42 9.64 0 17.44-7.8 17.44-17.43 0-4.22-.88-10.01-4.4-16.25"/></svg>

<svg xmlns="http://www.w3.org/2000/svg" viewBox="0 0 595.27 595.28">
	<style type="text/css">
		.st0{fill:#000000;}
	</style>
	<path class="st0" d="M490.64,245.32C466.67,245.32 438.85,249.04 417.29,259.03C411.56,201.61 396.47,127.36 364.49,79.31C450.8,101.78 520.84,167.47 548.1,253.07C531.41,248.04 511.45,245.32 490.64,245.32M298.8,245.32C271.26,245.32 238.84,248.78 213.2,258.13C226.05,140.73 267.15,70.92 298.8,70.92C331.61,70.92 369.92,144.42 382.09,257.73C359.22,249.3 328.95,245.32 298.8,245.32M178.03,259.05C156.53,249.07 128.7,245.32 104.63,245.32C83.84,245.32 63.89,248.03 47.21,253.06C74.65,167.41 145.34,101.72 232.55,79.28C199.75,127.26 183.97,201.1 178.03,259.05M590.87,281.39C567.55,147.43 454.69,44.69 316.24,36.57L316.24,17.43C316.24,7.8 308.43,0 298.8,0C289.17,0 281.36,7.8 281.36,17.43L281.36,36.57C143.38,44.62 27.95,146.83 4.4,281.38C0.88,287.63 0,293.42 0,297.64C0,307.27 7.8,315.07 17.43,315.07C24.03,315.07 35.53,310.45 37.01,298.89C37.16,297.78 37.32,296.68 37.48,295.58C45.22,289.51 68.15,280.19 104.63,280.19C147.21,280.19 171.36,292.89 174.41,298.29C174.73,306.72 181.11,314.58 191.83,315.09C201.42,315.54 209.55,308.16 210.05,298.58C216.42,292.94 240.82,282.99 281.36,280.69L281.36,525.52C281.36,563.98 312.65,595.27 351.12,595.27C389.58,595.27 420.88,563.98 420.88,525.52L420.88,508.08C420.88,498.44 413.07,490.64 403.44,490.64C393.8,490.64 386,498.44 386,508.08L386,525.52C386,544.75 370.35,560.4 351.12,560.4C331.88,560.4 316.24,544.75 316.24,525.52L316.24,280.7C355.64,283.01 379.14,292.77 385.2,298.31C385.2,298.37 385.2,298.43 385.21,298.49C385.64,307.83 393.36,315.11 402.61,315.11C413.61,315.11 420.53,307.02 420.86,298.29C423.91,292.89 448.06,280.19 490.64,280.19C527.12,280.19 550.05,289.51 557.79,295.58C557.94,296.6 558.09,297.62 558.23,298.65C559.65,309.67 570.73,315.07 577.83,315.07C587.47,315.07 595.27,307.27 595.27,297.64C595.27,293.42 594.39,287.63 590.87,281.39"/>
</svg>
